src/assets/wed_icon/icon_28/delete_active.svg

<svg width="28" height="28" viewBox="0 0 28 28" fill="none" xmlns="http://www.w3.org/2000/svg">
<path d="M7.33333 19.6094V13.5683C7.33333 12.4727 6.95769 11.4101 6.26906 10.558V10.558C5.35788 9.43037 6.16044 7.75 7.61017 7.75H20.3898C21.8396 7.75 22.6421 9.43037 21.7309 10.558V10.558C21.0423 11.4101 20.6667 12.4727 20.6667 13.5683V20.25C20.6667 22.4591 18.8758 24.25 16.6667 24.25H11.3333C9.12419 24.25 7.33333 22.4591 7.33333 20.25V16" stroke="#E03F3F" stroke-width="1.5" stroke-linecap="round"/>
<path d="M16 19L16 13" stroke="#E03F3F" stroke-width="1.5" stroke-linecap="round" stroke-linejoin="round"/>
<path d="M12 19L12 13" stroke="#E03F3F" stroke-width="1.5" stroke-linecap="round" stroke-linejoin="round"/>
<path d="M17 4.25C16.6421 3.93087 16.219 3.75 15.7732 3.75H12.2268C11.781 3.75 11.3579 3.93087 11 4.25" stroke="#E03F3F" stroke-width="1.5" stroke-linecap="round"/>
</svg>

<svg xmlns="http://www.w3.org/2000/svg" width="28" height="28" fill="none"><path stroke="#E03F3F" stroke-linecap="round" stroke-width="1.5" d="M7.333 19.61v-6.042a4.8 4.8 0 0 0-1.064-3.01v0C5.358 9.43 6.16 7.75 7.61 7.75h12.78c1.45 0 2.252 1.68 1.34 2.808v0a4.8 4.8 0 0 0-1.063 3.01v6.682a4 4 0 0 1-4 4h-5.334a4 4 0 0 1-4-4V16"/><path stroke="#E03F3F" stroke-linecap="round" stroke-linejoin="round" stroke-width="1.5" d="M16 19v-6M12 19v-6"/><path stroke="#E03F3F" stroke-linecap="round" stroke-width="1.5" d="M17 4.25c-.358-.32-.781-.5-1.227-.5h-3.546c-.446 0-.87.18-1.227.5"/></svg>
